X:53
T:Jack I'll Tickle thee
M:6/8
L:1/8
B:Thompson's Compleat Collection of 200 Favourite Country Dances, vol. 3 (London, 1773)
Z:Transcribed and edited by Flynn Titford-Mock, 2007
Z:abc's:AK/Fiddler's Companion
K:G
B2c dBG | ecA dBG | F2G AFD | BGE AFD | B2c dBG | ecA dBG | f2g afd | ge^c d3 :|
|: ded dgd | dbd dcB | cdc cec | cac cBA | B2B BAG | FGA D2 d/c/ | BAG DGF | G3 G3 :|

